.local/share/icons/Gruvbox-Plus-Dark/actions/symbolic/image-filter-symbolic.svg

<svg width="16" height="16" version="1.1" xmlns="http://www.w3.org/2000/svg">
  <defs>
    <style id="current-color-scheme" type="text/css">.ColorScheme-Text { color:#ebdbb2; } .ColorScheme-Highlight { color:#458588; }</style>
  </defs>
  <path class="ColorScheme-Text" d="m1.5 14.5c0.57-2.7 1.26-5.35 6.5-6.5 5.22-0.96 5.09-3.65 6-6v12.5z" fill="currentColor" opacity=".3"/>
  <path class="ColorScheme-Text" d="m1 1v14h14v-2h-12v-1.66c0.1212-0.2325 0.256-0.4597 0.4102-0.6777 0.81-1.16 2.12-2.148 4.65-2.658 2.68-0.54 4.229-1.491 5.059-2.691 0.84-1.19 0.8809-2.569 0.8809-3.809 2e-3 -0.3014-0.2303-0.5039-0.5293-0.5039-0.264 0-0.4707 0.2637-0.4707 0.5332 0.02 1.182-0.03946 2.301-0.6895 3.221-0.64 0.93-1.911 1.74-4.441 2.25-2.346 0.4743-3.871 1.387-4.869 2.508v-8.512z" fill="currentColor"/>
</svg>

<svg xmlns="http://www.w3.org/2000/svg" width="16" height="16" version="1.1">
 <path style="opacity:0.3;fill:#ebdbb2" d="M 1.5,14.5 C 2.07,11.8 2.76,9.15 8,8 13.22,7.04 13.09,4.35 14,2 V 14.5 Z"/>
 <path style="fill:#ebdbb2" d="M 13.47,1 C 13.206,1 13,1.2638 13,1.5333 13.02,2.7154 12.96,3.8333 12.31,4.7533 11.67,5.6833 10.4,6.4933 7.87,7.0033 5.15,7.5533 3.53,8.6933 2.56,10.063 1.6,11.443 1.28,13.003 1,14.353 L 2,14.563 C 2.28,13.213 2.59,11.823 3.41,10.663 4.22,9.5033 5.53,8.5133 8.06,8.0033 10.74,7.4633 12.29,6.5133 13.12,5.3133 13.96,4.1233 14,2.7433 14,1.5033 14.002,1.2019 13.769,1 13.47,1 Z"/>
 <path style="fill:#ebdbb2" d="M 1,1 H 3 V 15 H 1 Z"/>
 <path style="fill:#ebdbb2" d="M 13,-15 H 15 V -1 H 13 Z" transform="rotate(90)"/>
</svg>
